X: 95
T: No_55_Dream_of_the_Common_Bear.krn
N: Derived from No_55_Dream_of_the_Common_Bear.krn
%%abc-version 2.0
%%abcx-abcm2ps-target-version 5.9.1 (29 Sep 2008)
%%abc-creator hum2abc beta
%%abcx-conversion-date 2019/03/15 08:35:45
%%humdrum-veritas 2097564420
%%humdrum-veritas-data 541163875
%%linebreak <none>
%%barnumbers 0
L: 1/8
M: 3/8
K: C clef=bass
[K:clef=bass][M:3/8]zC2 | 
E2D ||  
[M:2/4]CC C3/C/ | 
C4 ||  
[M:3/8]G, z D | 
E2D ||  
[M:2/4]CC C3/C/ | 
C4 | 
CB, CG, | 
F,F, F,/ z/ G,/G,/ ||  
[M:3/8]A,2G, ||  
[M:2/4]F,F, F,3/E,/ | 
F,2z2 ||  
[M:3/4]F,D, C,C, C,/ z/ D,/D,/ ||  
[M:2/4]F,2F,2 ||  
[M:3/8]D,F,D, ||  
[M:2/4]C,C, C,3/C,/ ||  
[M:3/4]C,4C, z/ G,/ ||  
[M:2/4]C3/B,/ C3/B,/ | 
C4 | 
C/B,3/ C/G,3/ | 
F,F, F,/ z/ G,/G,/ ||  
[M:3/8]A,2G, ||  
[M:2/4]F,F, F,3/E,/ | 
F,2z2 ||  
[M:3/4]F,D, C,C, C,/ z/ D,/D,/ ||  
[M:2/4]F,2F,2 ||  
[M:3/8]D,F,D, ||  
[M:2/4]C,C, C,3/C,/ ||  
[M:3/4]C,4C, z |]  



